imgs/twitter.svg

<svg width="24" height="21" viewBox="0 0 24 21" fill="none" xmlns="http://www.w3.org/2000/svg">
<path d="M24 3.16587C23.1028 3.55048 22.2056 3.85817 21.1589 3.9351C22.2056 3.31971 22.9533 2.31971 23.3271 1.16587C22.3551 1.78125 21.3084 2.16587 20.1869 2.39663C19.2897 1.39663 18.0187 0.78125 16.6729 0.78125C13.9813 0.78125 11.7383 3.01202 11.7383 5.85817C11.7383 6.24279 11.8131 6.6274 11.8879 7.01202C7.7757 6.78125 4.18692 4.78125 1.71963 1.70433C1.27103 2.47356 1.04673 3.31971 1.04673 4.24279C1.04673 6.01202 1.94393 7.55048 3.21495 8.47356C2.39252 8.47356 1.64486 8.24279 0.971963 7.85817V7.9351C0.971963 10.3966 2.69159 12.3966 4.93458 12.8582C4.48598 12.9351 4.11215 13.012 3.66355 13.012C3.36449 13.012 3.06542 13.012 2.76636 12.9351C3.36449 14.9351 5.23365 16.3966 7.3271 16.4736C5.68224 17.8582 3.51402 18.6274 1.19626 18.6274C0.82243 18.6274 0.373832 18.6274 0 18.5505C2.24299 19.9351 4.85981 20.7813 7.62617 20.7813C16.6729 20.7813 21.6075 13.0889 21.6075 6.39663C21.6075 6.16587 21.6075 5.9351 21.6075 5.78125C22.5047 5.01202 23.3271 4.16587 24 3.16587Z" fill="#1DA1F2"/>
</svg>

<svg width="24" height="21" fill="none" xmlns="http://www.w3.org/2000/svg"><path d="M24 3.166c-.897.384-1.794.692-2.841.77 1.047-.616 1.794-1.616 2.168-2.77-.972.615-2.019 1-3.14 1.23-.897-1-2.168-1.615-3.514-1.615-2.692 0-4.935 2.231-4.935 5.077 0 .385.075.77.15 1.154-4.112-.23-7.701-2.23-10.168-5.308a4.948 4.948 0 00-.673 2.539c0 1.769.897 3.307 2.168 4.23a4.47 4.47 0 01-2.243-.615v.077c0 2.462 1.72 4.462 3.963 4.923-.449.077-.823.154-1.271.154-.3 0-.599 0-.898-.077.598 2 2.468 3.462 4.561 3.539-1.645 1.384-3.813 2.153-6.13 2.153-.375 0-.823 0-1.197-.076 2.243 1.384 4.86 2.23 7.626 2.23 9.047 0 13.982-7.692 13.982-14.384V5.78c.897-.769 1.72-1.615 2.392-2.615z" fill="#1DA1F2"/></svg>
